X:1
T:Edward
T:What Blood on the Point of your Knife?
B:Ozark Folk Songs, Randolph, Ed Norm Cohen,ISBN 0-252-00952-2
S:Emma L. Dusenbury, Mena, Arkansas, Jan 4, 1931
Z:Vance Randolph, 6A
F:http://www.folkinfo.org/songs
M:4/4     
L:1/8     %
K:C
 C2 |D2 E2 G2 EE |DD C2 C2 C2 |D2 E2 G2 E2 |
w:"What blood, What blood on th' p'int of your knife? Dear son, come tell to 
D4 z2 CE |G6 GG |ED C4 E2 |D3 E D2 A,2 |
w:me." "It's the blood of my old grey horse That plowed th' corn for 
G,2 A,2 C2 E2 |D3 E C2 A,2 |G,6 z2 |]
w:me, me, me, That plowed the corn for me"

